src/components/Icon/assets/email.svg

<svg width="24" height="24" viewBox="0 0 24 24" fill="none" xmlns="http://www.w3.org/2000/svg">
<path fill-rule="evenodd" clip-rule="evenodd" d="M20.5002 19.0001H3.50018C2.6719 19.0001 2.00018 18.3284 2.00018 17.5001V6.5001C2.00018 5.67181 2.6719 5.0001 3.50018 5.0001H20.5002C21.3285 5.0001 22.0002 5.67181 22.0002 6.5001V17.5001C22.0002 18.3284 21.3285 19.0001 20.5002 19.0001ZM20.0002 7.93927V7.0001H4.00018V7.93926L12.0002 12.8281L20.0002 7.93927ZM20.0002 10.2832V17.0001H4.00018V10.2831L11.0877 14.6144C11.6474 14.9572 12.353 14.9572 12.9135 14.6139L20.0002 10.2832Z" fill="#65676A"/>
</svg>

<svg xmlns="http://www.w3.org/2000/svg" width="24" height="24" viewBox="0 0 24 24">
    <path fill="#65676A" fill-rule="evenodd" d="M20.5 5c.828 0 1.5.672 1.5 1.5v11c0 .828-.672 1.5-1.5 1.5h-17c-.828 0-1.5-.672-1.5-1.5v-11C2 5.672 2.672 5 3.5 5h17zm-.5 5.282l-7.086 4.332c-.561.343-1.267.343-1.826 0L4 10.284V17h16v-6.718zM20 7H4v.94l8 4.888 8-4.89V7z"/>
</svg>
